flags/al.svg

<svg width="512" height="512" viewBox="0 0 512 512" fill="none" xmlns="http://www.w3.org/2000/svg">
<rect width="512" height="512" fill="var(--flag-palette-bright-red, #d80027)"/>
<path d="M400.696 190.009H307.97C313.694 184.015 317.217 175.9 317.217 166.957C317.217 148.516 302.267 133.566 283.826 133.566C272.208 133.566 261.981 139.502 256 148.503C250.019 139.502 239.791 133.566 228.174 133.566C209.733 133.566 194.783 148.516 194.783 166.957C194.783 175.9 198.306 184.016 204.03 190.009H111.305C111.305 214.598 132.722 234.53 157.309 234.53H155.825C155.825 259.12 175.758 279.053 200.348 279.053C200.348 287.017 202.447 294.483 206.111 300.947L169.181 337.878L197.515 366.21L237.707 326.019C239.281 326.596 240.91 327.059 242.592 327.374L218.305 382.209L256 422.957L293.695 382.207L269.408 327.372C271.091 327.057 272.719 326.595 274.293 326.017L314.485 366.208L342.819 337.875L305.888 300.944C309.553 294.481 311.652 287.014 311.652 279.05C336.241 279.05 356.174 259.118 356.174 234.527H354.691C379.278 234.529 400.696 214.598 400.696 190.009Z" fill="var(--flag-palette-black, #333333)"/>
</svg>

<svg xmlns="http://www.w3.org/2000/svg" width="512" height="512" fill="none"><path fill="var(--flag-palette-bright-red, #d80027)" d="M0 0h512v512H0z"/><path fill="#333" d="M400.7 190H308a33.3 33.3 0 0 0-24.2-56.4 33 33 0 0 0-27.8 14.9 33.4 33.4 0 1 0-52 41.5h-92.7a46 46 0 0 0 46 44.5h-1.5c0 24.6 20 44.6 44.5 44.6q.1 12.1 5.8 21.8l-37 37 28.4 28.3 40.2-40.2q2.4.9 4.9 1.4l-24.3 54.8L256 423l37.7-40.8-24.3-54.8q2.5-.5 4.9-1.4l40.2 40.2 28.3-28.3-37-37q5.8-9.8 5.9-21.8c24.5 0 44.5-20 44.5-44.6h-1.5c24.6 0 46-19.9 46-44.5"/></svg>
